src/images_karasa_jaga_svg/cmd/32/filefield.svg

<svg enable-background="new 0 0 128 128" height="32" viewBox="0 0 32 32" width="32" xmlns="http://www.w3.org/2000/svg" xmlns:xlink="http://www.w3.org/1999/xlink"><linearGradient id="a" gradientTransform="matrix(.4896 0 0 .48625 137.5001 104.07385)" gradientUnits="userSpaceOnUse" x1="-280.84171" x2="-127.3637" y1="-214.03363" y2="-135.43442"><stop offset="0" stop-color="#8dd8e4"/><stop offset=".04431298" stop-color="#a8e2f1"/><stop offset=".33793688" stop-color="#0a9dc4"/><stop offset=".73121971" stop-color="#00718c"/><stop offset="1" stop-color="#002b38"/></linearGradient><linearGradient id="b" gradientUnits="userSpaceOnUse" x1="88.591797" x2="71.262016" y1="96.592697" y2="79.262917"><stop offset="0" stop-color="#fff"/><stop offset="1" stop-color="#555753"/></linearGradient><linearGradient id="c" gradientUnits="userSpaceOnUse" x1="85.219681" x2="61.336319" y1="93.219681" y2="69.336319"><stop offset="0"/><stop offset="1" stop-color="#393b38"/></linearGradient><linearGradient id="d" gradientUnits="userSpaceOnUse" x1="96" x2="88.000198" y1="104" y2="96.000198"><stop offset="0" stop-color="#888a85"/><stop offset=".0072" stop-color="#8c8e89"/><stop offset=".0673" stop-color="#abaca9"/><stop offset=".1347" stop-color="#c5c6c4"/><stop offset=".2115" stop-color="#dbdbda"/><stop offset=".3012" stop-color="#ebebeb"/><stop offset=".4122" stop-color="#f7f7f6"/><stop offset=".5679" stop-color="#fdfdfd"/><stop offset="1" stop-color="#fff"/></linearGradient><radialGradient id="e" cx="102" cy="112.3047" gradientTransform="matrix(.9787234 0 0 .9818182 1.361705 1.163636)" gradientUnits="userSpaceOnUse" r="139.55859"><stop offset="0" stop-color="#535557"/><stop offset=".11366145" stop-color="#898a8c"/><stop offset=".20296688" stop-color="#ececec"/><stop offset=".2363" stop-color="#fafafa"/><stop offset=".2722" stop-color="#fff"/><stop offset=".5313" stop-color="#fafafa"/><stop offset=".8449" stop-color="#ebecec"/><stop offset="1" stop-color="#e1e2e3"/></radialGradient><radialGradient id="f" cx="102" cy="112.3047" gradientUnits="userSpaceOnUse" r="139.5585"><stop offset="0" stop-color="#00537d"/><stop offset=".0151" stop-color="#186389"/><stop offset=".0558" stop-color="#558ca8"/><stop offset=".0964" stop-color="#89afc3"/><stop offset=".1357" stop-color="#b3ccd8"/><stop offset=".1737" stop-color="#d4e2e9"/><stop offset=".2099" stop-color="#ecf2f5"/><stop offset=".2435" stop-color="#fafcfd"/><stop offset=".2722" stop-color="#fff"/></radialGradient><filter id="g"><feGaussianBlur stdDeviation="1.0394514"/></filter><filter id="h"><feGaussianBlur stdDeviation=".50063244"/></filter><filter id="i"><feGaussianBlur stdDeviation=".40750996"/></filter><filter id="j"><feGaussianBlur stdDeviation=".4901192"/></filter><filter id="k"><feGaussianBlur stdDeviation=".90565481"/></filter><g transform="matrix(.25 0 0 .25 0 -1)"><path d="m23 9 .04082 100.41379h61.13118c.53 0 1.039-.211 1.414-.586l32.828-32.827997c.375-.375.586-.884.586-1.414v-65.585793z" filter="url(#g)" opacity=".306849" transform="matrix(1.0416667 0 0 1.0357143 -9.958333 -3.321534)"/><path d="m24.919999 10.931136-.000002 96.551724 58.676001-.0001c.53 0 1.039-.211 1.414-.586l31.484002-31.765933c.375-.375.586-.884.586-1.414v-62.785691z" filter="url(#h)" opacity=".89589" transform="matrix(1.0416667 0 0 1.0357143 -9.958333 -3.321534)"/><path d="m23 9.9655172.04081 99.4482728h61.131184c.53 0 1.039-.211 1.414-.586l32.828006-32.827997c.375-.375.586-.884.586-1.414v-64.6202758z" filter="url(#g)" opacity=".306849" transform="matrix(1.0416667 0 0 1.0357143 -9.958333 -3.321534)"/><path d="m16.000002 8-.000002 100h61.172c.53 0 1.039-.211 1.414-.586l32.828-32.828c.375-.375.586-.884.586-1.414v-65.172z" fill="url(#f)"/><path d="m19.678725 10.7c-.539276 0-.978723.440836-.978723.981818l-.700002 93.336362c0 .54197.439447.98182.978723.98182h57.913022c.257404 0 .509915-.10407.691957-.28767l32.129528-32.23113c.18303-.1836.28677-.435927.28677-.694145v-61.805237c0-.540982-.43847-.981818-.97872-.981818z" fill="url(#e)"/><g transform="translate(.000002 -12)"><path d="m111.414 86.586c.25-.25-26.379-1.586-31.414-1.586-1.654 0-3 1.346-3 3 0 5.035 1.336 31.664 1.586 31.414z" fill="url(#b)" filter="url(#i)" opacity=".1"/><path d="m111.414 86.586c.375-.375-21.97-.586-31.414-.586-1.103 0-2 .897-2 2 0 9.444.211 31.789.586 31.414z" filter="url(#k)" opacity=".2"/><path d="m111.414 86.586c.239-.239-21.607.414-31.414.414-.553 0-1 .447-1 1 0 9.807-.653 31.653-.414 31.414z" fill="url(#c)" filter="url(#j)" opacity=".1"/><path d="m78.586 119.414s11.914-9.914 17.414-15.414 15.414-17.414 15.414-17.414-21.164 1.414-31.414 1.414c0 10.25-1.414 31.414-1.414 31.414z" fill="url(#d)"/></g></g><g transform="matrix(.25 0 0 .25 0 24)"><rect fill="url(#a)" height="32" rx="5.773646" ry="6.333394" width="128"/><path d="m4 4h120v24h-120z" fill="#e9e9e9"/><rect fill="#1450b3" height="8" rx=".137769" ry=".535839" width="100" x="16" y="12"/></g></svg>

<?xml version="1.0" encoding="UTF-8" standalone="no"?>
<svg
   xmlns:dc="http://purl.org/dc/elements/1.1/"
   xmlns:cc="http://creativecommons.org/ns#"
   xmlns:rdf="http://www.w3.org/1999/02/22-rdf-syntax-ns#"
   xmlns:svg="http://www.w3.org/2000/svg"
   xmlns="http://www.w3.org/2000/svg"
   xmlns:sodipodi="http://sodipodi.sourceforge.net/DTD/sodipodi-0.dtd"
   xmlns:inkscape="http://www.inkscape.org/namespaces/inkscape"
   enable-background="new 0 0 128 128"
   height="128"
   viewBox="0 0 128 128"
   width="128"
   version="1.1"
   id="svg113"
   sodipodi:docname="filefield.svg"
   inkscape:version="0.92.3 (unknown)"
   inkscape:export-filename="/home/rizmut/Dokumen/Rizmut/Github/libreoffice-style-karasa-jaga/build/images_karasa_jaga/cmd/32/filefield.png"
   inkscape:export-xdpi="24"
   inkscape:export-ydpi="24">
  <metadata
     id="metadata119">
    <rdf:RDF>
      <cc:Work
         rdf:about="">
        <dc:format>image/svg+xml</dc:format>
        <dc:type
           rdf:resource="http://purl.org/dc/dcmitype/StillImage" />
        <dc:title />
      </cc:Work>
    </rdf:RDF>
  </metadata>
  <defs
     id="defs117">
    <linearGradient
       id="linearGradient1639"
       gradientTransform="matrix(1.0185733,0,0,0.96145831,-0.713472,8.473499)"
       gradientUnits="userSpaceOnUse"
       x1="3.587285"
       x2="107.14484"
       y1="4.73702"
       y2="79.217056">
      <stop
         offset="0"
         stop-color="#6fc5dd"
         id="stop1031" />
      <stop
         offset="1"
         stop-color="#042f3a"
         stop-opacity=".894118"
         id="stop1033" />
    </linearGradient>
  </defs>
  <sodipodi:namedview
     pagecolor="#ffffff"
     bordercolor="#666666"
     borderopacity="1"
     objecttolerance="10"
     gridtolerance="10"
     guidetolerance="10"
     inkscape:pageopacity="0"
     inkscape:pageshadow="2"
     inkscape:window-width="1366"
     inkscape:window-height="706"
     id="namedview115"
     showgrid="true"
     inkscape:zoom="3.6875"
     inkscape:cx="29.296155"
     inkscape:cy="53.232681"
     inkscape:window-x="0"
     inkscape:window-y="0"
     inkscape:window-maximized="1"
     inkscape:current-layer="g943">
    <inkscape:grid
       type="xygrid"
       id="grid926"
       spacingx="4"
       spacingy="4"
       empspacing="1" />
  </sodipodi:namedview>
  <linearGradient
     id="a"
     gradientUnits="userSpaceOnUse"
     x1="88.591797"
     x2="71.262016"
     y1="96.592697"
     y2="79.262917">
    <stop
       offset="0"
       stop-color="#fff"
       id="stop2" />
    <stop
       offset="1"
       stop-color="#555753"
       id="stop4" />
  </linearGradient>
  <linearGradient
     id="b"
     gradientUnits="userSpaceOnUse"
     x1="85.219681"
     x2="61.336319"
     y1="93.219681"
     y2="69.336319">
    <stop
       offset="0"
       id="stop7" />
    <stop
       offset="1"
       stop-color="#393b38"
       id="stop9" />
  </linearGradient>
  <linearGradient
     id="c"
     gradientUnits="userSpaceOnUse"
     x1="96"
     x2="88.0002"
     y1="104"
     y2="96.0002">
    <stop
       offset="0"
       stop-color="#888a85"
       id="stop12" />
    <stop
       offset=".0072"
       stop-color="#8c8e89"
       id="stop14" />
    <stop
       offset=".0673"
       stop-color="#abaca9"
       id="stop16" />
    <stop
       offset=".1347"
       stop-color="#c5c6c4"
       id="stop18" />
    <stop
       offset=".2115"
       stop-color="#dbdbda"
       id="stop20" />
    <stop
       offset=".3012"
       stop-color="#ebebeb"
       id="stop22" />
    <stop
       offset=".4122"
       stop-color="#f7f7f6"
       id="stop24" />
    <stop
       offset=".5679"
       stop-color="#fdfdfd"
       id="stop26" />
    <stop
       offset="1"
       stop-color="#fff"
       id="stop28" />
  </linearGradient>
  <radialGradient
     id="d"
     cx="102"
     cy="112.3047"
     gradientTransform="matrix(0.9787234,0,0,0.9818182,1.361705,1.163636)"
     gradientUnits="userSpaceOnUse"
     r="139.55859">
    <stop
       offset="0"
       stop-color="#535557"
       id="stop31" />
    <stop
       offset=".11366145"
       stop-color="#898a8c"
       id="stop33" />
    <stop
       offset=".20296688"
       stop-color="#ececec"
       id="stop35" />
    <stop
       offset=".2363"
       stop-color="#fafafa"
       id="stop37" />
    <stop
       offset=".2722"
       stop-color="#fff"
       id="stop39" />
    <stop
       offset=".5313"
       stop-color="#fafafa"
       id="stop41" />
    <stop
       offset=".8449"
       stop-color="#ebecec"
       id="stop43" />
    <stop
       offset="1"
       stop-color="#e1e2e3"
       id="stop45" />
  </radialGradient>
  <radialGradient
     id="e"
     cx="102.000002"
     cy="112.3047"
     gradientUnits="userSpaceOnUse"
     r="139.5585">
    <stop
       offset="0"
       stop-color="#00537d"
       id="stop48" />
    <stop
       offset=".0151"
       stop-color="#186389"
       id="stop50" />
    <stop
       offset=".0558"
       stop-color="#558ca8"
       id="stop52" />
    <stop
       offset=".0964"
       stop-color="#89afc3"
       id="stop54" />
    <stop
       offset=".1357"
       stop-color="#b3ccd8"
       id="stop56" />
    <stop
       offset=".1737"
       stop-color="#d4e2e9"
       id="stop58" />
    <stop
       offset=".2099"
       stop-color="#ecf2f5"
       id="stop60" />
    <stop
       offset=".2435"
       stop-color="#fafcfd"
       id="stop62" />
    <stop
       offset=".2722"
       stop-color="#fff"
       id="stop64" />
  </radialGradient>
  <filter
     id="f">
    <feGaussianBlur
       stdDeviation="1.0394514"
       id="feGaussianBlur67" />
  </filter>
  <filter
     id="g">
    <feGaussianBlur
       stdDeviation=".50063244"
       id="feGaussianBlur70" />
  </filter>
  <filter
     id="h">
    <feGaussianBlur
       stdDeviation=".40750996"
       id="feGaussianBlur73" />
  </filter>
  <filter
     id="i">
    <feGaussianBlur
       stdDeviation=".4901192"
       id="feGaussianBlur76" />
  </filter>
  <filter
     id="j">
    <feGaussianBlur
       stdDeviation=".90565481"
       id="feGaussianBlur79" />
  </filter>
  <linearGradient
     id="k"
     gradientTransform="matrix(1.0185733,0,0,0.96145831,-0.713472,8.473499)"
     gradientUnits="userSpaceOnUse"
     x1="3.587285"
     x2="107.14484"
     y1="4.73702"
     y2="79.217056">
    <stop
       offset="0"
       stop-color="#6fc5dd"
       id="stop82" />
    <stop
       offset="1"
       stop-color="#042f3a"
       stop-opacity=".894118"
       id="stop84" />
  </linearGradient>
  <g
     id="g943"
     transform="translate(-1.223333e-7,-3.9999999)">
    <path
       id="path87"
       transform="matrix(1.0416667,0,0,1.0357143,-9.958333,-3.321534)"
       d="m 23,9 0.04082,100.41379 h 61.13118 c 0.53,0 1.039,-0.211 1.414,-0.586 L 118.414,75.999793 c 0.375,-0.375 0.586,-0.884 0.586,-1.414 L 119,9 Z"
       inkscape:connector-curvature="0"
       style="opacity:0.30684904;filter:url(#f)"
       sodipodi:nodetypes="ccsssscc" />
    <path
       id="path89"
       transform="matrix(1.0416667,0,0,1.0357143,-9.958333,-3.321534)"
       d="m 24.919999,10.931136 -2e-6,96.551724 58.676001,-1e-4 c 0.53,0 1.039,-0.211 1.414,-0.586 L 116.494,75.130827 c 0.375,-0.375 0.586,-0.884 0.586,-1.414 l 0,-62.785691 z"
       inkscape:connector-curvature="0"
       style="opacity:0.89589;filter:url(#g)"
       sodipodi:nodetypes="cccccscc" />
    <path
       id="path91"
       transform="matrix(1.0416667,0,0,1.0357143,-9.958333,-3.321534)"
       d="m 23,9.9655172 0.04081,99.4482728 h 61.131184 c 0.53,0 1.039,-0.211 1.414,-0.586 L 118.414,75.999793 c 0.375,-0.375 0.586,-0.884 0.586,-1.414 l 0,-64.6202758 z"
       inkscape:connector-curvature="0"
       style="opacity:0.30684904;filter:url(#f)"
       sodipodi:nodetypes="ccsssscc" />
    <path
       id="path93"
       d="M 16.000002,8 16,108 h 61.172 c 0.53,0 1.039,-0.211 1.414,-0.586 L 111.414,74.586 C 111.789,74.211 112,73.702 112,73.172 L 112,8 Z"
       style="fill:url(#e)"
       inkscape:connector-curvature="0"
       sodipodi:nodetypes="ccsssscc" />
    <path
       id="path95"
       d="m 19.678725,10.7 c -0.539276,0 -0.978723,0.440836 -0.978723,0.981818 L 18,105.01818 C 18,105.56015 18.439447,106 18.978723,106 h 57.913022 c 0.257404,0 0.509915,-0.10407 0.691957,-0.28767 L 109.71323,73.4812 C 109.89626,73.2976 110,73.045273 110,72.787055 l 0,-61.805237 C 110,10.440836 109.56153,10 109.02128,10 Z"
       style="fill:url(#d)"
       inkscape:connector-curvature="0"
       sodipodi:nodetypes="cccssccsscc" />
    <g
       id="g105"
       transform="translate(2e-6,-12)">
      <path
         id="path97"
         d="M 111.414,86.586 C 111.664,86.336 85.035,85 80,85 c -1.654,0 -3,1.346 -3,3 0,5.035 1.336,31.664 1.586,31.414 z"
         style="opacity:0.1;fill:url(#a);filter:url(#h)"
         inkscape:connector-curvature="0" />
      <path
         id="path99"
         d="M 111.414,86.586 C 111.789,86.211 89.444,86 80,86 c -1.103,0 -2,0.897 -2,2 0,9.444 0.211,31.789 0.586,31.414 z"
         inkscape:connector-curvature="0"
         style="opacity:0.2;filter:url(#j)" />
      <path
         id="path101"
         d="M 111.414,86.586 C 111.653,86.347 89.807,87 80,87 c -0.553,0 -1,0.447 -1,1 0,9.807 -0.653,31.653 -0.414,31.414 z"
         style="opacity:0.1;fill:url(#b);filter:url(#i)"
         inkscape:connector-curvature="0" />
      <path
         id="path103"
         d="m 78.586,119.414 c 0,0 11.914,-9.914 17.414,-15.414 5.5,-5.5 15.414,-17.414 15.414,-17.414 0,0 -21.164,1.414 -31.414,1.414 0,10.25 -1.414,31.414 -1.414,31.414 z"
         style="fill:url(#c)"
         inkscape:connector-curvature="0" />
    </g>
  </g>
  <g
     id="g1647"
     transform="translate(0,96)">
    <rect
       id="rect1056"
       width="128"
       ry="6.3333941"
       rx="5.7736459"
       height="32"
       style="fill:url(#k)"
       x="0"
       y="0" />
    <path
       id="path1058"
       d="M 4,4 H 124 V 28 H 4 Z"
       style="fill:#e9e9e9"
       inkscape:connector-curvature="0" />
    <rect
       id="rect1060"
       y="12"
       x="16"
       width="100"
       ry="0.53583902"
       rx="0.137769"
       height="8"
       style="fill:#1450b3" />
  </g>
</svg>
